build/img/favicon/favicon.svg

<svg width="38" height="39" viewBox="0 0 38 39" fill="none" xmlns="http://www.w3.org/2000/svg">
<path d="M11.8932 7.5354C11.8932 7.5354 7.00499 7.57087 6.55574 7.62362C5.6921 7.72251 3.77394 8.14553 2.98434 9.7284C1.90887 11.885 3.93361 14.9404 3.93361 14.9404L6.4792 19.0102" stroke="#BFECFF" stroke-width="1.5" stroke-linecap="round"/>
<path d="M9.0712 30.8111C9.70527 30.4148 9.89802 29.5795 9.50173 28.9454C9.10544 28.3114 8.27017 28.1186 7.6361 28.5149L6.87057 28.9934C6.2365 29.3897 6.04375 30.2249 6.44004 30.859C6.83633 31.4931 7.6716 31.6858 8.30567 31.2895L9.0712 30.8111Z" fill="white"/>
<path d="M14.7475 20.1675C15.3815 19.7712 15.5743 18.936 15.178 18.3019C14.7817 17.6678 13.9464 17.4751 13.3124 17.8714L5.91281 22.4961C5.27874 22.8924 5.08598 23.7276 5.48228 24.3617C5.87857 24.9958 6.71384 25.1885 7.34791 24.7922L14.7475 20.1675Z" fill="white"/>
<path d="M17.4037 25.604C18.0378 25.2077 18.2305 24.3725 17.8342 23.7384C17.438 23.1043 16.6027 22.9116 15.9686 23.3079L11.7404 25.9505C11.1064 26.3468 10.9136 27.1821 11.3099 27.8161C11.7062 28.4502 12.5415 28.643 13.1755 28.2467L17.4037 25.604Z" fill="white"/>
<path d="M32.9908 18.7025C33.484 18.3942 33.6339 17.7446 33.3257 17.2514C33.0175 16.7582 32.3678 16.6083 31.8746 16.9165C31.3814 17.2247 31.2315 17.8744 31.5397 18.3676C31.848 18.8608 32.4976 19.0107 32.9908 18.7025Z" fill="white"/>
<path fill-rule="evenodd" clip-rule="evenodd" d="M26.8677 22.6473C26.1169 24.1668 25.2566 25.9116 24.485 27.4765C23.4037 29.6695 22.4966 31.5092 22.309 31.8805C21.5926 33.3043 20.8954 33.7847 20.0541 33.7017C19.4024 33.6429 18.5425 32.8235 18.4854 31.1918C18.4283 29.5602 18.2324 25.0913 14.7988 27.2367C14.7399 27.1424 14.7111 26.9965 14.6799 26.8387C14.6432 26.6528 14.6033 26.4505 14.5071 26.2965C13.7062 25.015 10.411 19.6891 10.6501 19.5396C10.8892 19.3902 11.9936 18.3656 11.3004 17.1882C10.7038 16.1748 9.72742 15.5953 8.67133 14.9684C8.50054 14.8671 8.32766 14.7645 8.15397 14.6586C6.55096 13.6302 6.17932 12.8345 6.5543 11.7692C7.02996 10.7654 8.59783 10.7684 9.23986 10.7892C9.86861 10.8102 14.6682 10.8351 19.4764 10.8427L16.3439 19.4349C16.1801 19.9392 16.1974 20.4848 16.393 20.9776C16.7438 21.4083 17.2462 21.6883 17.7971 21.76L26.8658 22.6454C26.8664 22.6461 26.8671 22.6467 26.8677 22.6473ZM23.1065 10.8449C22.9676 10.8725 22.8328 10.922 22.7074 10.9923C22.4366 11.1443 22.226 11.3845 22.1109 11.6729C21.0082 14.1887 20.7001 14.9899 20.2616 16.13C20.1627 16.3869 20.0573 16.6611 19.9346 16.976C19.9173 17.0265 19.8959 17.0863 19.8719 17.1534C19.6833 17.6802 19.3353 18.6525 19.5766 19.0385C19.7838 19.3701 20.2491 19.4175 21.134 19.5076C21.2617 19.5206 21.398 19.5345 21.5436 19.5502C23.9627 19.8093 27.381 20.1052 27.381 20.1052C27.6849 20.0761 27.9736 19.9583 28.2111 19.7664C28.2669 19.7213 28.3193 19.6726 28.368 19.6207C28.4571 19.4422 28.5354 19.2859 28.6013 19.1549L30.8941 14.591C30.9018 14.5758 30.9098 14.5599 30.9181 14.5434C31.3858 13.6151 32.8187 10.7707 28.5386 10.8221C27.3135 10.8369 25.3379 10.8436 23.1065 10.8449Z" fill="white"/>
<path d="M34.8013 14.1406C34.8013 14.1406 36.3778 11.671 35.1199 9.61551C33.862 7.55998 30.2775 7.52905 30.2775 7.52905L16.9495 7.60056" stroke="#FE60B7" stroke-width="1.5" stroke-linecap="round"/>
<path d="M13.9453 31.1632C13.9453 31.1632 16.5751 35.3968 16.7051 35.5792C17.0654 36.0881 18.5826 37.9864 20.6148 37.7921C23.0137 37.5623 24.5332 34.2269 24.5332 34.2269L30.8445 21.591" stroke="#A072FD" stroke-width="1.5" stroke-linecap="round"/>
</svg>

<svg width="38" height="39" fill="none" xmlns="http://www.w3.org/2000/svg"><path d="M11.893 7.535s-4.888.036-5.337.089c-.864.099-2.782.522-3.572 2.104-1.075 2.157.95 5.212.95 5.212l2.545 4.07" stroke="#BFECFF" stroke-width="1.5" stroke-linecap="round"/><path d="M9.071 30.811a1.354 1.354 0 00-1.435-2.296l-.765.478a1.354 1.354 0 101.435 2.297l.765-.479zm5.677-10.643a1.354 1.354 0 00-1.436-2.297l-7.4 4.625a1.354 1.354 0 101.436 2.296l7.4-4.625zm2.656 5.436a1.354 1.354 0 10-1.435-2.296L11.74 25.95a1.354 1.354 0 001.435 2.296l4.229-2.643zm15.586-6.901a1.053 1.053 0 10-1.115-1.787 1.053 1.053 0 001.116 1.787z" fill="#fff"/><path fill-rule="evenodd" clip-rule="evenodd" d="M26.868 22.647l-2.383 4.83a1268.233 1268.233 0 01-2.176 4.404c-.716 1.423-1.414 1.904-2.255 1.82-.652-.058-1.511-.877-1.569-2.51-.057-1.63-.253-6.1-3.686-3.954-.06-.095-.088-.24-.12-.398-.036-.186-.076-.388-.172-.542-.8-1.282-4.096-6.608-3.857-6.757.24-.15 1.344-1.174.65-2.352-.596-1.013-1.573-1.593-2.629-2.22-.17-.1-.343-.204-.517-.31-1.603-1.028-1.975-1.823-1.6-2.889.476-1.004 2.044-1 2.686-.98.629.021 5.428.046 10.236.054l-3.132 8.592a2.276 2.276 0 00.049 1.543c.35.43.853.71 1.404.782l9.069.885.002.002zm-3.761-11.802a1.357 1.357 0 00-.996.828c-1.103 2.516-1.41 3.317-1.85 4.457l-.326.846-.063.177c-.189.527-.537 1.5-.295 1.886.207.331.672.378 1.557.469l.41.042c2.419.26 5.837.555 5.837.555a1.557 1.557 0 00.987-.484l.233-.466 2.293-4.564.024-.048c.468-.928 1.9-3.772-2.38-3.72-1.224.014-3.2.02-5.431.022z" fill="#fff"/><path d="M34.801 14.14s1.577-2.469.319-4.524c-1.258-2.056-4.842-2.087-4.842-2.087l-13.328.072" stroke="#FE60B7" stroke-width="1.5" stroke-linecap="round"/><path d="M13.945 31.163s2.63 4.234 2.76 4.416c.36.51 1.878 2.407 3.91 2.213 2.399-.23 3.918-3.565 3.918-3.565l6.311-12.636" stroke="#A072FD" stroke-width="1.5" stroke-linecap="round"/></svg>
